X:55
T:Pop Her Away
T:Colonel Baird's Strathspey
C:Robert Petrie
S:Petrie's Third Collection of Strathspey Reels and Country Dances &c.
Z:Steve Wyrick , 7/31/05
N:Petrie's Third Collection, page 22
L:1/8
M:C
R:Strathspey
K:Em
e>EE>F G>AB<G|F<dAAF<D|e>EE>F G>AB<f|g>ef<^d Be e2|e>EE>f G>AB>G|
F<dA<[Bd] G>AF<D|E<GF<A G>BA<c|BG B/A/G/F/ GEEB||e>fg<e Bed<g f/g/a/f/ df|
e>fg<e Bef>^d B<ee>B|e>fg<e Bed<g f/g/a/g/ df|g<ef<^d e>BA<F|GA B/A/G/F/ GEEB|]
